; generated by Slic3r 0.9.9-dev on 2013-06-26 at 21:42:10

; layer_height = 0.4
; perimeters = 2
; top_solid_layers = 2
; bottom_solid_layers = 2
; fill_density = 0.5
; perimeter_speed = 30
; infill_speed = 30
; travel_speed = 50
; nozzle_diameter = 0.5
; filament_diameter = 3
; extrusion_multiplier = 1.0
; perimeters extrusion width = 0.45mm
; infill extrusion width = 0.45mm
; solid infill extrusion width = 0.45mm
; top infill extrusion width = 0.45mm

G21 ; set units to millimeters
;M190 S125 ; wait for bed temperature to be reached
G28
G90 ; use absolute coordinates
M83 ; use relative distances for extrusion
G1 F12000.000 E-20.00000
G1 Z0.235 F3000.000
G1 X73.180 Y78.300
G1 F12000.000 E20.00000
G1 X73.580 Y77.960 F900.000 E0.01232
G1 X74.230 Y77.520 E0.01842
G1 X74.700 Y77.270 E0.01249
G1 X75.180 Y77.050 E0.01239
G1 X75.680 Y76.880 E0.01239
G1 X76.190 Y76.750 E0.01235
G1 X76.450 Y76.700 E0.00621
G1 X77.240 Y76.620 E0.01863
G1 X116.760 Y76.620 E0.92733
G1 X117.550 Y76.700 E0.01863
G1 X117.810 Y76.750 E0.00621
G1 X118.320 Y76.880 E0.01235
G1 X118.820 Y77.050 E0.01239
G1 X119.300 Y77.270 E0.01239
G1 X119.770 Y77.520 E0.01249
G1 X120.420 Y77.960 E0.01842
G1 X120.820 Y78.300 E0.01232
G1 X121.200 Y78.680 E0.01261
G1 X121.540 Y79.080 E0.01232
G1 X121.980 Y79.730 E0.01842
G1 X122.230 Y80.200 E0.01249
G1 X122.450 Y80.680 E0.01239
G1 X122.690 Y81.430 E0.01848
G1 X122.800 Y81.950 E0.01247
G1 X122.880 Y82.740 E0.01863
G1 X122.880 Y95.260 E0.29378
G1 X122.800 Y96.050 E0.01863
G1 X122.750 Y96.310 E0.00621
G1 X122.620 Y96.820 E0.01235
G1 X122.450 Y97.320 E0.01239
G1 X122.230 Y97.800 E0.01239
G1 X121.980 Y98.270 E0.01249
G1 X121.540 Y98.920 E0.01842
G1 X121.200 Y99.320 E0.01232
G1 X120.820 Y99.700 E0.01261
G1 X120.420 Y100.040 E0.01232
G1 X119.770 Y100.480 E0.01842
G1 X119.300 Y100.730 E0.01249
G1 X118.820 Y100.950 E0.01239
G1 X118.320 Y101.120 E0.01239
G1 X117.810 Y101.250 E0.01235
G1 X117.550 Y101.300 E0.00621
G1 X117.030 Y101.360 E0.01228
G1 X116.760 Y101.380 E0.00635
G1 X77.240 Y101.380 E0.92733
G1 X76.450 Y101.300 E0.01863
G1 X76.190 Y101.250 E0.00621
G1 X75.680 Y101.120 E0.01235
G1 X75.180 Y100.950 E0.01239
G1 X74.700 Y100.730 E0.01239
G1 X74.230 Y100.480 E0.01249
G1 X73.580 Y100.040 E0.01842
G1 X73.180 Y99.700 E0.01232
G1 X72.800 Y99.320 E0.01261
G1 X72.460 Y98.920 E0.01232
G1 X72.020 Y98.270 E0.01842
G1 X71.770 Y97.800 E0.01249
G1 X71.550 Y97.320 E0.01239
G1 X71.380 Y96.820 E0.01239
G1 X71.250 Y96.310 E0.01235
G1 X71.200 Y96.050 E0.00621
G1 X71.140 Y95.530 E0.01228
G1 X71.120 Y95.260 E0.00635
G1 X71.120 Y82.740 E0.29378
G1 X71.200 Y81.950 E0.01863
G1 X71.310 Y81.430 E0.01247
G1 X71.460 Y80.930 E0.01225
G1 X71.550 Y80.680 E0.00623
G1 X71.890 Y79.960 E0.01868
G1 X72.160 Y79.510 E0.01231
G1 X72.460 Y79.080 E0.01230
G1 X72.800 Y78.680 E0.01232
G1 X73.131 Y78.349 E0.01099
G1 X73.400 Y78.720 F3000.000
G1 X73.780 Y78.390 F900.000 E0.01181
G1 X74.180 Y78.090 E0.01173
G1 X74.610 Y77.830 E0.01179
G1 X75.060 Y77.600 E0.01186
G1 X75.770 Y77.340 E0.01774
G1 X76.250 Y77.210 E0.01167
G1 X76.500 Y77.160 E0.00598
G1 X77.250 Y77.080 E0.01770
G1 X116.750 Y77.080 E0.92686
G1 X117.500 Y77.160 E0.01770
G1 X117.750 Y77.210 E0.00598
G1 X118.230 Y77.340 E0.01167
G1 X118.710 Y77.510 E0.01195
G1 X119.170 Y77.710 E0.01177
G1 X119.820 Y78.090 E0.01767
G1 X120.220 Y78.390 E0.01173
G1 X120.600 Y78.720 E0.01181
G1 X121.110 Y79.280 E0.01777
G1 X121.410 Y79.680 E0.01173
G1 X121.670 Y80.110 E0.01179
G1 X121.900 Y80.560 E0.01186
G1 X122.160 Y81.270 E0.01774
G1 X122.340 Y82.000 E0.01764
G1 X122.420 Y82.750 E0.01770
G1 X122.420 Y95.250 E0.29331
G1 X122.340 Y96.000 E0.01770
G1 X122.290 Y96.250 E0.00598
G1 X122.160 Y96.730 E0.01167
G1 X121.990 Y97.210 E0.01195
G1 X121.900 Y97.440 E0.00580
G1 X121.670 Y97.890 E0.01186
G1 X121.410 Y98.320 E0.01179
G1 X121.110 Y98.720 E0.01173
G1 X120.600 Y99.280 E0.01777
G1 X120.220 Y99.610 E0.01181
G1 X119.820 Y99.910 E0.01173
G1 X119.390 Y100.170 E0.01179
G1 X118.940 Y100.400 E0.01186
G1 X118.230 Y100.660 E0.01774
G1 X117.500 Y100.840 E0.01764
G1 X116.750 Y100.920 E0.01770
G1 X77.250 Y100.920 E0.92686
G1 X76.500 Y100.840 E0.01770
G1 X76.250 Y100.790 E0.00598
G1 X75.770 Y100.660 E0.01167
G1 X75.290 Y100.490 E0.01195
G1 X75.060 Y100.400 E0.00580
G1 X74.610 Y100.170 E0.01186
G1 X74.180 Y99.910 E0.01179
G1 X73.780 Y99.610 E0.01173
G1 X73.220 Y99.100 E0.01777
G1 X72.890 Y98.720 E0.01181
G1 X72.590 Y98.320 E0.01173
G1 X72.210 Y97.670 E0.01767
G1 X72.100 Y97.440 E0.00598
G1 X71.920 Y96.970 E0.01181
G1 X71.710 Y96.250 E0.01760
G1 X71.660 Y96.000 E0.00598
G1 X71.600 Y95.500 E0.01182
G1 X71.580 Y95.250 E0.00588
G1 X71.580 Y82.750 E0.29331
G1 X71.600 Y82.500 E0.00588
G1 X71.660 Y82.000 E0.01182
G1 X71.770 Y81.510 E0.01178
G1 X71.920 Y81.030 E0.01180
G1 X72.100 Y80.560 E0.01181
G1 X72.330 Y80.110 E0.01186
G1 X72.590 Y79.680 E0.01179
G1 X72.890 Y79.280 E0.01173
G1 X73.351 Y78.769 E0.01615
G1 X73.730 Y79.050 F3000.000
G1 X74.100 Y78.730 F900.000 E0.01148
G1 X74.490 Y78.440 E0.01140
G1 X74.910 Y78.190 E0.01147
G1 X75.350 Y77.980 E0.01144
G1 X75.810 Y77.810 E0.01151
G1 X76.280 Y77.680 E0.01144
G1 X76.770 Y77.590 E0.01169
G1 X77.260 Y77.540 E0.01156
G1 X116.740 Y77.540 E0.92639
G1 X117.230 Y77.590 E0.01156
G1 X117.720 Y77.680 E0.01169
G1 X118.420 Y77.890 E0.01715
G1 X119.090 Y78.190 E0.01723
G1 X119.710 Y78.580 E0.01719
G1 X120.270 Y79.050 E0.01715
G1 X120.770 Y79.600 E0.01744
G1 X120.920 Y79.790 E0.00568
G1 X121.190 Y80.200 E0.01152
G1 X121.520 Y80.850 E0.01711
G1 X121.690 Y81.310 E0.01151
G1 X121.870 Y82.020 E0.01719
G1 X121.960 Y82.760 E0.01749
G1 X121.960 Y95.240 E0.29284
G1 X121.910 Y95.730 E0.01156
G1 X121.820 Y96.220 E0.01169
G1 X121.610 Y96.920 E0.01715
G1 X121.310 Y97.590 E0.01723
G1 X120.920 Y98.210 E0.01719
G1 X120.610 Y98.590 E0.01151
G1 X120.270 Y98.950 E0.01162
G1 X119.710 Y99.420 E0.01715
G1 X119.090 Y99.810 E0.01719
G1 X118.420 Y100.110 E0.01723
G1 X117.950 Y100.260 E0.01158
G1 X117.480 Y100.370 E0.01133
G1 X116.740 Y100.460 E0.01749
G1 X77.260 Y100.460 E0.92639
G1 X76.770 Y100.410 E0.01156
G1 X76.280 Y100.320 E0.01169
G1 X75.580 Y100.110 E0.01715
G1 X74.910 Y99.810 E0.01723
G1 X74.290 Y99.420 E0.01719
G1 X73.910 Y99.110 E0.01151
G1 X73.550 Y98.770 E0.01162
G1 X73.080 Y98.210 E0.01715
G1 X72.690 Y97.590 E0.01719
G1 X72.390 Y96.920 E0.01723
G1 X72.180 Y96.220 E0.01715
G1 X72.060 Y95.490 E0.01736
G1 X72.040 Y95.240 E0.00588
G1 X72.040 Y82.760 E0.29284
G1 X72.060 Y82.510 E0.00588
G1 X72.130 Y82.020 E0.01161
G1 X72.240 Y81.550 E0.01133
G1 X72.390 Y81.080 E0.01158
G1 X72.580 Y80.630 E0.01146
G1 X72.810 Y80.200 E0.01144
G1 X73.080 Y79.790 E0.01152
G1 X73.390 Y79.410 E0.01151
G1 X73.681 Y79.099 E0.01000
G1 F12000.000 E-20.00000
G1 X78.191 Y83.691 F3000.000
G1 F12000.000 E20.00000
G1 X115.809 Y83.691 F900.000 E0.88269
G1 X115.809 Y94.309 E0.24914
G1 X109.441 Y94.309 E0.14942
G1 X109.441 Y84.309 E0.23465
G1 X84.559 Y84.309 E0.58386
G1 X84.559 Y94.309 E0.23465
G1 X78.191 Y94.309 E0.14942
G1 X78.191 Y83.760 E0.24752
G1 X77.730 Y83.230 F3000.000
G1 X116.270 Y83.230 F900.000 E0.90432
G1 X116.270 Y94.770 E0.27077
G1 X108.980 Y94.770 E0.17104
G1 X108.980 Y84.770 E0.23465
G1 X85.020 Y84.770 E0.56223
G1 X85.020 Y94.770 E0.23465
G1 X77.730 Y94.770 E0.17104
G1 X77.730 Y83.299 E0.26914
G1 X78.129 Y83.461 F3000.000
G1 F12000.000 E-20.00000
G1 X109.775 Y93.975 F3000.000
G1 F12000.000 E20.00000
G1 X109.775 Y93.323 F900.000 E0.01532
G1 X110.427 Y93.975 E0.02166
G1 X111.079 Y93.975 E0.01531
G1 X109.775 Y92.671 E0.04332
G1 X109.775 Y92.019 E0.01531
G1 X111.731 Y93.975 E0.06497
G1 X112.383 Y93.975 E0.01531
G1 X109.775 Y91.367 E0.08663
G1 X109.775 Y90.714 E0.01531
G1 X113.036 Y93.975 E0.10828
G1 X113.688 Y93.975 E0.01531
G1 X109.775 Y90.062 E0.12994
G1 X109.775 Y89.410 E0.01531
G1 X114.340 Y93.975 E0.15159
G1 X114.992 Y93.975 E0.01531
G1 X109.775 Y88.758 E0.17324
G1 X109.775 Y88.106 E0.01531
G1 X115.475 Y93.806 E0.18929
G1 X115.475 Y93.154 E0.01531
G1 X109.775 Y87.454 E0.18929
G1 X109.775 Y86.802 E0.01531
G1 X115.475 Y92.502 E0.18929
G1 X115.475 Y91.850 E0.01531
G1 X109.775 Y86.150 E0.18929
G1 X109.775 Y85.498 E0.01531
G1 X115.475 Y91.198 E0.18929
G1 X115.475 Y90.546 E0.01531
G1 X109.775 Y84.846 E0.18929
G1 X109.775 Y84.194 E0.01531
G1 X115.475 Y89.894 E0.18929
G1 X115.475 Y89.242 E0.01531
G1 X110.258 Y84.025 E0.17324
G1 X110.910 Y84.025 E0.01531
G1 X115.475 Y88.590 E0.15159
G1 X115.475 Y87.938 E0.01531
G1 X111.562 Y84.025 E0.12994
G1 X112.214 Y84.025 E0.01531
G1 X115.475 Y87.286 E0.10828
G1 X115.475 Y86.633 E0.01531
G1 X112.867 Y84.025 E0.08663
G1 X113.519 Y84.025 E0.01531
G1 X115.475 Y85.981 E0.06497
G1 X115.475 Y85.329 E0.01531
G1 X114.171 Y84.025 E0.04332
G1 X114.823 Y84.025 E0.01531
G1 X115.475 Y84.677 E0.02166
G1 X115.475 Y84.025 E0.01532
G1 X84.225 Y84.025 F3000.000
G1 X84.225 Y84.677 F900.000 E0.01532
G1 X83.573 Y84.025 E0.02166
G1 X82.921 Y84.025 E0.01531
G1 X84.225 Y85.329 E0.04332
G1 X84.225 Y85.981 E0.01531
G1 X82.269 Y84.025 E0.06497
G1 X81.617 Y84.025 E0.01531
G1 X84.225 Y86.633 E0.08663
G1 X84.225 Y87.286 E0.01531
G1 X80.964 Y84.025 E0.10828
G1 X80.312 Y84.025 E0.01531
G1 X84.225 Y87.938 E0.12994
G1 X84.225 Y88.590 E0.01531
G1 X79.660 Y84.025 E0.15159
G1 X79.008 Y84.025 E0.01531
G1 X84.225 Y89.242 E0.17324
G1 X84.225 Y89.894 E0.01531
G1 X78.525 Y84.194 E0.18929
G1 X78.525 Y84.846 E0.01531
G1 X84.225 Y90.546 E0.18929
G1 X84.225 Y91.198 E0.01531
G1 X78.525 Y85.498 E0.18929
G1 X78.525 Y86.150 E0.01531
G1 X84.225 Y91.850 E0.18929
G1 X84.225 Y92.502 E0.01531
G1 X78.525 Y86.802 E0.18929
G1 X78.525 Y87.454 E0.01531
G1 X84.225 Y93.154 E0.18929
G1 X84.225 Y93.806 E0.01531
G1 X78.525 Y88.106 E0.18929
G1 X78.525 Y88.758 E0.01531
G1 X83.742 Y93.975 E0.17324
G1 X83.090 Y93.975 E0.01531
G1 X78.525 Y89.410 E0.15159
G1 X78.525 Y90.062 E0.01531
G1 X82.438 Y93.975 E0.12994
G1 X81.786 Y93.975 E0.01531
G1 X78.525 Y90.714 E0.10828
G1 X78.525 Y91.367 E0.01531
G1 X81.133 Y93.975 E0.08663
G1 X80.481 Y93.975 E0.01531
G1 X78.525 Y92.019 E0.06497
G1 X78.525 Y92.671 E0.01531
G1 X79.829 Y93.975 E0.04332
G1 X79.177 Y93.975 E0.01531
G1 X78.525 Y93.323 E0.02166
G1 X78.525 Y93.975 E0.01532
;M140 S120 ; set bed temperature
G1 F12000.000 E-20.00000
G1 Z0.635 F3000.000
G1 X115.809 Y83.691
G1 F12000.000 E20.00000
G1 X115.809 Y94.309 F1800.000 E0.27683
G1 X109.441 Y94.309 E0.16602
G1 X109.441 Y84.309 E0.26072
G1 X84.559 Y84.309 E0.64873
G1 X84.559 Y94.309 E0.26072
G1 X78.191 Y94.309 E0.16602
G1 X78.191 Y83.691 E0.27683
G1 X115.740 Y83.691 E0.97897
G1 X116.270 Y83.230 F3000.000
G1 X116.270 Y94.770 F1800.000 E0.30085
G1 X108.980 Y94.770 E0.19005
G1 X108.980 Y84.770 E0.26072
G1 X85.020 Y84.770 E0.62470
G1 X85.020 Y94.770 E0.26072
G1 X77.730 Y94.770 E0.19005
G1 X77.730 Y83.230 E0.30085
G1 X116.201 Y83.230 E1.00299
G1 X116.039 Y83.629 F3000.000
G1 X109.775 Y84.025
G1 X110.427 Y84.025 F1800.000 E0.01702
G1 X109.775 Y84.677 E0.02407
G1 X109.775 Y85.329 E0.01701
G1 X111.079 Y84.025 E0.04813
G1 X111.731 Y84.025 E0.01701
G1 X109.775 Y85.981 E0.07219
G1 X109.775 Y86.633 E0.01701
G1 X112.383 Y84.025 E0.09625
G1 X113.036 Y84.025 E0.01701
G1 X109.775 Y87.286 E0.12031
G1 X109.775 Y87.938 E0.01701
G1 X113.688 Y84.025 E0.14437
G1 X114.340 Y84.025 E0.01701
G1 X109.775 Y88.590 E0.16843
G1 X109.775 Y89.242 E0.01701
G1 X114.992 Y84.025 E0.19249
G1 X115.475 Y84.194 E0.01336
G1 X109.775 Y89.894 E0.21033
G1 X109.775 Y90.546 E0.01701
G1 X115.475 Y84.846 E0.21033
G1 X115.475 Y85.498 E0.01701
G1 X109.775 Y91.198 E0.21033
G1 X109.775 Y91.850 E0.01701
G1 X115.475 Y86.150 E0.21033
G1 X115.475 Y86.802 E0.01701
G1 X109.775 Y92.502 E0.21033
G1 X109.775 Y93.154 E0.01701
G1 X115.475 Y87.454 E0.21033
G1 X115.475 Y88.106 E0.01701
G1 X109.775 Y93.806 E0.21033
G1 X110.258 Y93.975 E0.01336
G1 X115.475 Y88.758 E0.19249
G1 X115.475 Y89.410 E0.01701
G1 X110.910 Y93.975 E0.16843
G1 X111.562 Y93.975 E0.01701
G1 X115.475 Y90.062 E0.14437
G1 X115.475 Y90.714 E0.01701
G1 X112.214 Y93.975 E0.12031
G1 X112.867 Y93.975 E0.01701
G1 X115.475 Y91.367 E0.09625
G1 X115.475 Y92.019 E0.01701
G1 X113.519 Y93.975 E0.07219
G1 X114.171 Y93.975 E0.01701
G1 X115.475 Y92.671 E0.04813
G1 X115.475 Y93.323 E0.01701
G1 X114.823 Y93.975 E0.02407
G1 X115.475 Y93.975 E0.01702
G1 F12000.000 E-20.00000
G1 X84.225 Y93.975 F3000.000
G1 F12000.000 E20.00000
G1 X83.573 Y93.975 F1800.000 E0.01702
G1 X84.225 Y93.323 E0.02407
G1 X84.225 Y92.671 E0.01701
G1 X82.921 Y93.975 E0.04813
G1 X82.269 Y93.975 E0.01701
G1 X84.225 Y92.019 E0.07219
G1 X84.225 Y91.367 E0.01701
G1 X81.617 Y93.975 E0.09625
G1 X80.964 Y93.975 E0.01701
G1 X84.225 Y90.714 E0.12031
G1 X84.225 Y90.062 E0.01701
G1 X80.312 Y93.975 E0.14437
G1 X79.660 Y93.975 E0.01701
G1 X84.225 Y89.410 E0.16843
G1 X84.225 Y88.758 E0.01701
G1 X79.008 Y93.975 E0.19249
G1 X78.525 Y93.806 E0.01336
G1 X84.225 Y88.106 E0.21033
G1 X84.225 Y87.454 E0.01701
G1 X78.525 Y93.154 E0.21033
G1 X78.525 Y92.502 E0.01701
G1 X84.225 Y86.802 E0.21033
G1 X84.225 Y86.150 E0.01701
G1 X78.525 Y91.850 E0.21033
G1 X78.525 Y91.198 E0.01701
G1 X84.225 Y85.498 E0.21033
G1 X84.225 Y84.846 E0.01701
G1 X78.525 Y90.546 E0.21033
G1 X78.525 Y89.894 E0.01701
G1 X84.225 Y84.194 E0.21033
G1 X83.742 Y84.025 E0.01336
G1 X78.525 Y89.242 E0.19249
G1 X78.525 Y88.590 E0.01701
G1 X83.090 Y84.025 E0.16843
G1 X82.438 Y84.025 E0.01701
G1 X78.525 Y87.938 E0.14437
G1 X78.525 Y87.286 E0.01701
G1 X81.786 Y84.025 E0.12031
G1 X81.133 Y84.025 E0.01701
G1 X78.525 Y86.633 E0.09625
G1 X78.525 Y85.981 E0.01701
G1 X80.481 Y84.025 E0.07219
G1 X79.829 Y84.025 E0.01701
G1 X78.525 Y85.329 E0.04813
G1 X78.525 Y84.677 E0.01701
G1 X79.177 Y84.025 E0.02407
G1 X78.525 Y84.025 E0.01702
G1 F12000.000 E-20.00000
G1 Z1.035 F3000.000
G1 X78.191 Y94.309
G1 F12000.000 E20.00000
G1 X78.191 Y83.691 F1800.000 E0.27683
G1 X115.809 Y83.691 E0.98077
G1 X115.809 Y94.309 E0.27683
G1 X109.441 Y94.309 E0.16602
G1 X109.441 Y84.309 E0.26072
G1 X84.559 Y84.309 E0.64873
G1 X84.559 Y94.309 E0.26072
G1 X78.260 Y94.309 E0.16422
G1 X77.730 Y94.770 F3000.000
G1 X77.730 Y83.230 F1800.000 E0.30085
G1 X116.270 Y83.230 E1.00480
G1 X116.270 Y94.770 E0.30085
G1 X108.980 Y94.770 E0.19005
G1 X108.980 Y84.770 E0.26072
G1 X85.020 Y84.770 E0.62470
G1 X85.020 Y94.770 E0.26072
G1 X77.799 Y94.770 E0.18824
G1 X77.961 Y94.371 F3000.000
G1 X78.525 Y93.975
G1 X78.525 Y92.672 F1800.000 E0.03398
G1 X79.828 Y93.975 E0.04806
G1 X81.131 Y93.975 E0.03398
G1 X78.525 Y91.368 E0.09610
G1 X78.525 Y90.065 E0.03398
G1 X82.435 Y93.975 E0.14415
G1 X83.738 Y93.975 E0.03398
G1 X78.525 Y88.762 E0.19220
G1 X78.525 Y87.459 E0.03398
G1 X84.225 Y93.159 E0.21017
G1 X84.225 Y91.856 E0.03398
G1 X78.525 Y86.156 E0.21017
G1 X78.525 Y84.853 E0.03398
G1 X84.225 Y90.553 E0.21017
G1 X84.225 Y89.250 E0.03398
G1 X79.000 Y84.025 E0.19264
G1 X80.304 Y84.025 E0.03398
G1 X84.225 Y87.946 E0.14459
G1 X84.225 Y86.643 E0.03398
G1 X81.607 Y84.025 E0.09654
G1 X82.910 Y84.025 E0.03398
G1 X84.225 Y85.340 E0.04849
G1 X84.213 Y84.025 E0.03429
G1 F12000.000 E-20.00000
G1 X109.775 Y93.975 F3000.000
G1 F12000.000 E20.00000
G1 X109.775 Y92.672 F1800.000 E0.03398
G1 X111.078 Y93.975 E0.04806
G1 X112.381 Y93.975 E0.03398
G1 X109.775 Y91.368 E0.09610
G1 X109.775 Y90.065 E0.03398
G1 X113.685 Y93.975 E0.14415
G1 X114.988 Y93.975 E0.03398
G1 X109.775 Y88.762 E0.19220
G1 X109.775 Y87.459 E0.03398
G1 X115.475 Y93.159 E0.21017
G1 X115.475 Y91.856 E0.03398
G1 X109.775 Y86.156 E0.21017
G1 X109.775 Y84.853 E0.03398
G1 X115.475 Y90.553 E0.21017
G1 X115.475 Y89.250 E0.03398
G1 X110.250 Y84.025 E0.19264
G1 X111.554 Y84.025 E0.03398
G1 X115.475 Y87.946 E0.14459
G1 X115.475 Y86.643 E0.03398
G1 X112.857 Y84.025 E0.09654
