; generated by Slic3r 0.9.10b on 2014-03-18 at 20:52:39

; layer_height = 0.3
; perimeters = 2
; top_solid_layers = 2
; bottom_solid_layers = 2
; fill_density = 0.5
; perimeter_speed = 70
; infill_speed = 70
; travel_speed = 80
; nozzle_diameter = 0.5
; filament_diameter = 2.6
; extrusion_multiplier = 1
; perimeters extrusion width = 0.70mm
; infill extrusion width = 0.70mm
; solid infill extrusion width = 0.70mm
; top infill extrusion width = 0.70mm
; first layer extrusion width = 0.80mm

G21 ; set units to millimeters
M190 S95 ; wait for bed temperature to be reached
M104 S230 ; set temperature
G28 ; home all axes
G1 Z5 F5000 ; lift nozzle
M109 S230 ; wait for temperature to be reached
G90 ; use absolute coordinates
G92 E0
M82 ; use absolute distances for extrusion
G1 Z0.400 F4800.000
G1 X20.371 Y20.462
G1 X22.517 Y18.316 F3360.000 E0.16820
G1 X22.788 Y18.204 E0.18442
G1 X63.517 Y18.204 E2.44171
G1 X63.788 Y18.316 E2.45793
G1 X65.934 Y20.462 E2.62613
G1 X66.046 Y20.733 E2.64235
G1 X66.046 Y29.411 E3.12335
G1 X66.068 Y29.516 E3.12928
G1 X66.046 Y29.637 E3.13607
G1 X66.046 Y30.061 E3.15958
G1 X66.077 Y30.152 E3.16492
G1 X66.046 Y30.467 E3.18247
G1 X66.046 Y39.267 E3.67019
G1 X65.934 Y39.538 E3.68641
G1 X63.788 Y41.684 E3.85461
G1 X63.517 Y41.796 E3.87083
G1 X22.877 Y41.796 E6.12316
G1 X22.607 Y41.684 E6.13937
G1 X20.461 Y39.538 E6.30758
G1 X20.349 Y39.267 E6.32380
G1 X20.349 Y32.984 E6.67204
G1 X20.259 Y32.767 E6.68502
G1 X20.259 Y20.733 E7.35202
G1 X20.329 Y20.564 E7.36212
G1 X21.107 Y20.767 F4800.000
G1 X22.822 Y19.052 F3360.000 E7.49655
G1 X23.093 Y18.940 E7.51277
G1 X63.213 Y18.940 E9.73628
G1 X63.483 Y19.052 E9.75250
G1 X65.198 Y20.767 E9.88693
G1 X65.310 Y21.037 E9.90315
G1 X65.310 Y38.963 E10.89661
G1 X65.198 Y39.233 E10.91283
G1 X63.483 Y40.948 E11.04726
G1 X63.213 Y41.060 E11.06348
G1 X23.182 Y41.060 E13.28202
G1 X22.912 Y40.948 E13.29824
G1 X21.197 Y39.233 E13.43267
G1 X21.085 Y38.963 E13.44889
G1 X21.085 Y32.679 E13.79713
G1 X20.995 Y32.463 E13.81012
G1 X20.995 Y21.037 E14.44334
G1 X21.065 Y20.869 E14.45344
G1 X21.843 Y21.072 F4800.000
G1 X23.127 Y19.787 F3360.000 E14.55409
G1 X23.397 Y19.675 E14.57031
G1 X62.908 Y19.675 E16.76006
G1 X63.178 Y19.787 E16.77627
G1 X64.463 Y21.072 E16.87693
G1 X64.575 Y21.342 E16.89315
G1 X64.575 Y38.658 E17.85283
G1 X64.463 Y38.928 E17.86905
G1 X63.178 Y40.213 E17.96970
G1 X62.908 Y40.325 E17.98592
G1 X23.487 Y40.325 E20.17070
G1 X23.217 Y40.213 E20.18692
G1 X21.932 Y38.928 E20.28757
G1 X21.820 Y38.658 E20.30379
G1 X21.820 Y32.375 E20.65203
G1 X21.731 Y32.158 E20.66502
G1 X21.731 Y21.342 E21.26446
G1 X21.800 Y21.173 E21.27457
G1 X22.578 Y21.376 F4800.000
G1 X23.432 Y20.523 F3360.000 E21.34145
G1 X23.702 Y20.411 E21.35766
G1 X62.603 Y20.411 E23.51363
G1 X62.874 Y20.523 E23.52985
G1 X63.727 Y21.376 E23.59673
G1 X63.839 Y21.647 E23.61295
G1 X63.839 Y38.353 E24.53886
G1 X63.727 Y38.624 E24.55508
G1 X62.874 Y39.477 E24.62196
G1 X62.603 Y39.589 E24.63818
G1 X23.792 Y39.589 E26.78918
G1 X23.521 Y39.477 E26.80540
G1 X22.668 Y38.624 E26.87228
G1 X22.556 Y38.353 E26.88850
G1 X22.556 Y32.070 E27.23674
G1 X22.466 Y31.853 E27.24972
G1 X22.466 Y21.647 E27.81539
G1 X22.536 Y21.478 E27.82550
G1 X23.314 Y21.681 F4800.000
G1 X23.736 Y21.259 F3360.000 E27.85860
G1 X24.007 Y21.147 E27.87482
G1 X62.299 Y21.147 E29.99702
G1 X62.569 Y21.259 E30.01324
G1 X62.991 Y21.681 E30.04634
G1 X63.103 Y21.951 E30.06256
G1 X63.103 Y38.049 E30.95470
G1 X62.991 Y38.319 E30.97092
G1 X62.569 Y38.741 E31.00402
G1 X62.299 Y38.853 E31.02024
G1 X24.096 Y38.853 E33.13747
G1 X23.826 Y38.741 E33.15369
G1 X23.404 Y38.319 E33.18679
G1 X23.292 Y38.049 E33.20301
G1 X23.292 Y31.765 E33.55125
G1 X23.202 Y31.549 E33.56424
G1 X23.202 Y21.951 E34.09613
G1 X23.272 Y21.783 E34.10624
G1 X23.937 Y22.313 F4800.000
G1 X24.368 Y21.882 F3360.000 E34.14001
G1 X61.937 Y21.882 E36.22211
G1 X62.368 Y22.313 E36.25588
G1 X62.368 Y37.687 E37.10791
G1 X61.937 Y38.118 E37.14169
G1 X24.458 Y38.118 E39.21881
G1 X24.027 Y37.687 E39.25259
G1 X24.027 Y31.371 E39.60264
G1 X23.937 Y31.154 E39.61562
G1 X23.937 Y22.423 E40.09950
G1 X24.673 Y22.618 F4800.000
G1 X61.632 Y22.618 F2352.000 E42.14782
G1 X61.632 Y29.814 E42.54661
G1 X61.346 Y29.836 E42.56250
G1 X61.256 Y29.267 E42.59444
G1 X60.919 Y28.606 E42.63557
G1 X60.394 Y28.081 E42.67671
G1 X59.733 Y27.744 E42.71785
G1 X59.000 Y27.628 E42.75898
G1 X58.267 Y27.744 E42.80012
G1 X57.606 Y28.081 E42.84125
G1 X57.081 Y28.606 E42.88239
G1 X56.744 Y29.267 E42.92353
G1 X56.628 Y30.000 E42.96466
G1 X56.744 Y30.733 E43.00580
G1 X57.081 Y31.394 E43.04694
G1 X57.606 Y31.919 E43.08807
G1 X58.267 Y32.256 E43.12921
G1 X59.000 Y32.372 E43.17035
G1 X59.733 Y32.256 E43.21148
G1 X60.394 Y31.919 E43.25262
G1 X60.919 Y31.394 E43.29376
G1 X61.256 Y30.733 E43.33489
G1 X61.346 Y30.164 E43.36683
G1 X61.632 Y30.186 E43.38271
G1 X61.632 Y37.382 E43.78151
G1 X24.763 Y37.382 E45.82486
G1 X24.763 Y30.882 E46.18510
G1 X24.673 Y30.882 E46.19007
G1 X24.673 Y22.728 E46.64198
G1 X25.310 Y22.986 F4800.000
G1 X25.409 Y23.353
G1 X60.897 Y23.353 F3360.000 E48.60876
G1 X60.897 Y27.511 E48.83917
G1 X59.963 Y27.035 E48.89723
G1 X59.000 Y26.883 E48.95128
G1 X58.037 Y27.035 E49.00533
G1 X57.168 Y27.478 E49.05938
G1 X56.478 Y28.168 E49.11343
G1 X56.035 Y29.037 E49.16747
G1 X55.883 Y30.000 E49.22153
G1 X56.035 Y30.963 E49.27558
G1 X56.478 Y31.832 E49.32963
G1 X57.168 Y32.522 E49.38369
G1 X58.037 Y32.965 E49.43773
G1 X59.000 Y33.117 E49.49178
G1 X59.963 Y32.965 E49.54583
G1 X60.897 Y32.489 E49.60389
G1 X60.897 Y36.647 E49.83430
G1 X25.498 Y36.647 E51.79611
G1 X25.498 Y30.147 E52.15635
G1 X25.409 Y30.147 E52.16132
G1 X25.409 Y23.464 E52.53169
G1 X33.559 Y25.132 F4800.000
G1 X53.441 Y25.132 F2352.000 E53.63361
G1 X53.441 Y34.868 E54.17317
G1 X33.559 Y34.868 E55.27509
G1 X33.559 Y25.243 E55.80854
G1 X34.196 Y25.500 F4800.000
G1 X32.823 Y24.397
G1 X54.177 Y24.397 F3360.000 E56.99199
G1 X54.177 Y35.603 E57.61309
G1 X32.823 Y35.603 E58.79655
G1 X32.823 Y24.507 E59.41153
G1 X61.257 Y30.169 F4800.000
G1 X61.329 Y30.000 F3360.000 E59.42171
G1 X60.909 Y29.227 E59.47049
G1 X61.257 Y30.169 F4800.000
G1 X61.222 Y30.194 F3360.000 E59.47287
G1 X61.222 Y30.194 F4800.000
G1 X61.077 Y30.487 F3360.000 E59.49103
G1 X61.077 Y30.487 F4800.000
G1 X60.936 Y30.788 F3360.000 E59.50944
G1 X60.363 Y33.450 F4800.000
G1 X59.456 Y33.585 F3360.000 E59.56039
G1 X60.363 Y34.492 E59.63167
G1 X60.363 Y35.535 E59.68957
G1 X58.389 Y33.560 E59.84466
G1 X55.729 Y36.113 F4800.000
G1 X54.710 Y35.094 F3360.000 E59.92470
G1 X54.710 Y34.052 E59.98260
G1 X56.772 Y36.113 E60.14454
G1 X57.814 Y36.113 E60.20244
G1 X54.710 Y33.009 E60.44626
G1 X54.710 Y31.967 E60.50416
G1 X58.857 Y36.113 E60.82986
G1 X59.899 Y36.113 E60.88776
G1 X54.710 Y30.924 E61.29534
G1 X55.068 Y30.240 E61.33824
G1 X55.050 Y30.221 E61.33970
G1 X55.049 Y30.220 F4800.000
G1 X54.945 Y30.116 F2400.000 E61.34786
G1 X55.258 Y29.387 F4800.000
G1 X54.710 Y28.839 F3360.000 E61.39083
G1 X55.610 Y28.697 F4800.000
G1 X54.710 Y27.796 F3360.000 E61.46138
G1 X54.710 Y26.754 F4800.000
G1 X55.962 Y28.006 F3360.000 E61.55951
G1 X56.445 Y27.447 F4800.000
G1 X54.710 Y25.711 F3360.000 E61.69550
G1 X54.710 Y24.669 F4800.000
G1 X57.004 Y26.963 F3360.000 E61.87531
G1 X57.695 Y26.611 F4800.000
G1 X54.970 Y23.887 F3360.000 E62.08885
G1 X56.013 Y23.887 F4800.000
G1 X58.542 Y26.416 F3360.000 E62.28706
G1 X59.608 Y26.439 F4800.000
G1 X57.055 Y23.887 F3360.000 E62.48713
G1 X58.098 Y23.887 F4800.000
G1 X60.363 Y26.152 F3360.000 E62.66468
G1 X60.363 Y25.109 F4800.000
G1 X59.141 Y23.887 F3360.000 E62.76052
G1 X60.183 Y23.887 F4800.000
G1 X60.363 Y24.067 F3360.000 E62.77466
G1 X32.290 Y24.142 F4800.000
G1 X32.035 Y23.887 F3360.000 E62.79465
G1 X30.992 Y23.887 F4800.000
G1 X32.290 Y25.184 F3360.000 E62.89636
G1 X32.290 Y26.227 F4800.000
G1 X29.950 Y23.887 F3360.000 E63.07978
G1 X28.907 Y23.887 F4800.000
G1 X32.290 Y27.269 F3360.000 E63.34491
G1 X32.290 Y28.312 F4800.000
G1 X27.865 Y23.887 F3360.000 E63.69175
G1 X26.822 Y23.887 F4800.000
G1 X32.290 Y29.354 F3360.000 E64.12030
G1 X32.290 Y30.397 F4800.000
G1 X25.942 Y24.049 F3360.000 E64.61784
G1 X25.942 Y25.092 F4800.000
G1 X32.290 Y31.439 F3360.000 E65.11538
G1 X32.290 Y32.482 F4800.000
G1 X25.942 Y26.134 F3360.000 E65.61291
G1 X25.942 Y27.177 F4800.000
G1 X32.290 Y33.525 F3360.000 E66.11045
G1 X32.290 Y34.567 F4800.000
G1 X25.942 Y28.219 F3360.000 E66.60799
G1 X25.942 Y29.262 F4800.000
G1 X32.290 Y35.610 F3360.000 E67.10552
G1 X31.751 Y36.113 F4800.000
G1 X26.032 Y30.394 F3360.000 E67.55381
G1 X26.032 Y31.436 F4800.000
G1 X30.709 Y36.113 F3360.000 E67.92038
G1 X29.666 Y36.113 F4800.000
G1 X26.032 Y32.479 F3360.000 E68.20524
G1 X26.032 Y33.521 F4800.000
G1 X28.624 Y36.113 F3360.000 E68.40840
G1 X27.581 Y36.113 F4800.000
G1 X26.032 Y34.564 F3360.000 E68.52984
G1 X26.032 Y35.606 F4800.000
G1 X26.538 Y36.113 F3360.000 E68.56956
G1 Z0.700 F4800.000
G1 X56.783 Y30.720
G1 X56.669 Y30.000 F4200.000 E68.59654
G1 X56.783 Y29.280 E68.62351
G1 X57.114 Y28.630 E68.65049
G1 X57.630 Y28.114 E68.67746
G1 X58.280 Y27.783 E68.70444
G1 X59.000 Y27.669 E68.73141
G1 X59.720 Y27.783 E68.75839
G1 X60.370 Y28.114 E68.78536
G1 X60.886 Y28.630 E68.81234
G1 X61.217 Y29.280 E68.83931
G1 X61.331 Y30.000 E68.86629
G1 X61.217 Y30.720 E68.89326
G1 X60.886 Y31.370 E68.92024
G1 X60.370 Y31.886 E68.94721
G1 X59.720 Y32.217 E68.97419
G1 X59.000 Y32.331 E69.00116
G1 X58.280 Y32.217 E69.02814
G1 X57.630 Y31.886 E69.05511
G1 X57.114 Y31.370 E69.08209
G1 X56.827 Y30.808 E69.10543
G1 X57.246 Y30.258 F4800.000
G1 X54.277 Y35.482
G1 X32.723 Y35.482 F4200.000 E69.90257
G1 X32.723 Y24.518 E70.30803
G1 X54.277 Y24.518 E71.10517
G1 X54.277 Y35.384 E71.50699
G1 X53.623 Y34.827 F4800.000
G1 X33.377 Y34.827 F2940.000 E72.25573
G1 X33.377 Y25.173 E72.61277
G1 X53.623 Y25.173 E73.36151
G1 X53.623 Y34.729 E73.71492
G1 X53.056 Y34.500 F4800.000
G1 X56.578 Y31.760
G1 X57.240 Y32.422 F4200.000 E73.74956
G1 X58.075 Y32.847 E73.78420
G1 X59.000 Y32.994 E73.81885
G1 X59.925 Y32.847 E73.85349
G1 X61.018 Y32.291 E73.89886
G1 X61.018 Y36.768 E74.06446
G1 X25.200 Y36.768 E75.38909
G1 X25.200 Y30.268 E75.62947
G1 X24.997 Y30.268 E75.63699
G1 X24.997 Y23.232 E75.89721
G1 X61.018 Y23.232 E77.22936
G1 X61.018 Y27.709 E77.39496
G1 X59.925 Y27.153 E77.44033
G1 X59.000 Y27.006 E77.47497
G1 X58.075 Y27.153 E77.50961
G1 X57.240 Y27.578 E77.54426
G1 X56.578 Y28.240 E77.57890
G1 X56.153 Y29.075 E77.61354
G1 X56.006 Y30.000 E77.64818
G1 X56.153 Y30.925 E77.68283
G1 X56.533 Y31.672 E77.71384
G1 X61.673 Y37.423 F4800.000
G1 X24.546 Y37.423 F2940.000 E79.08688
G1 X24.546 Y30.923 E79.32726
G1 X24.342 Y30.923 E79.33478
G1 X24.342 Y22.577 E79.64342
G1 X61.673 Y22.577 E81.02398
G1 X61.673 Y37.325 E81.56937
G1 X61.106 Y37.096 F4800.000
G1 X32.248 Y36.173
G1 X32.127 Y36.294 F4200.000 E81.57576
G1 X31.192 Y36.294 E81.61067
G1 X32.248 Y35.238 E81.66642
G1 X32.248 Y34.303 E81.70133
G1 X30.258 Y36.294 E81.80645
G1 X29.323 Y36.294 E81.84136
G1 X32.248 Y33.369 E81.99585
G1 X32.248 Y32.434 E82.03075
G1 X28.388 Y36.294 E82.23460
G1 X27.454 Y36.294 E82.26951
G1 X32.248 Y31.499 E82.52272
G1 X32.248 Y30.565 E82.55763
G1 X26.519 Y36.294 E82.86021
G1 X25.675 Y36.204 E82.89193
G1 X32.248 Y29.630 E83.23910
G1 X32.248 Y28.695 E83.27401
G1 X25.675 Y35.269 E83.62119
G1 X25.675 Y34.334 E83.65610
G1 X32.248 Y27.761 E84.00328
G1 X32.248 Y26.826 E84.03818
G1 X25.675 Y33.400 E84.38536
G1 X25.675 Y32.465 E84.42027
G1 X32.248 Y25.891 E84.76745
G1 X32.248 Y24.957 E84.80235
G1 X25.675 Y31.530 E85.14953
G1 X25.675 Y30.596 E85.18444
G1 X32.248 Y24.022 E85.53162
G1 X31.629 Y23.706 E85.55757
G1 X25.542 Y29.794 E85.87908
G1 X25.471 Y28.930 E85.91147
G1 X30.695 Y23.706 E86.18733
G1 X29.760 Y23.706 E86.22224
G1 X25.471 Y27.995 E86.44874
G1 X25.471 Y27.060 E86.48365
G1 X28.825 Y23.706 E86.66079
G1 X27.891 Y23.706 E86.69569
G1 X25.471 Y26.125 E86.82347
G1 X25.471 Y25.191 E86.85837
G1 X26.956 Y23.706 E86.93678
G1 X26.021 Y23.706 E86.97169
G1 X25.471 Y24.256 E87.00073
G1 X54.465 Y36.298 F4800.000
G1 X54.353 Y35.948 F3000.000 E87.00751
G1 X53.999 Y36.302 E87.01674
G1 X53.891 Y35.948 E87.02357
G1 X53.537 Y36.302 E87.03279
G1 X53.429 Y35.948 E87.03962
G1 X53.075 Y36.302 E87.04885
G1 X52.967 Y35.948 E87.05568
G1 X52.613 Y36.302 E87.06491
G1 X52.505 Y35.948 E87.07173
G1 X52.151 Y36.302 E87.08096
G1 X52.043 Y35.948 E87.08779
G1 X51.689 Y36.302 E87.09702
G1 X51.581 Y35.948 E87.10385
G1 X51.227 Y36.302 E87.11307
G1 X51.119 Y35.948 E87.11990
G1 X50.765 Y36.302 E87.12913
G1 X50.657 Y35.948 E87.13596
G1 X50.303 Y36.302 E87.14519
G1 X50.195 Y35.948 E87.15201
G1 X49.841 Y36.302 E87.16124
G1 X49.732 Y35.948 E87.16807
G1 X49.379 Y36.302 E87.17730
G1 X49.270 Y35.948 E87.18413
G1 X48.917 Y36.302 E87.19335
G1 X48.808 Y35.948 E87.20018
G1 X48.455 Y36.302 E87.20941
G1 X48.346 Y35.948 E87.21624
G1 X47.993 Y36.302 E87.22547
G1 X47.884 Y35.948 E87.23229
G1 X47.531 Y36.302 E87.24152
G1 X47.422 Y35.948 E87.24835
G1 X47.069 Y36.302 E87.25758
G1 X46.960 Y35.948 E87.26441
G1 X46.607 Y36.302 E87.27363
G1 X46.498 Y35.948 E87.28046
G1 X46.145 Y36.302 E87.28969
G1 X46.036 Y35.948 E87.29652
G1 X45.683 Y36.302 E87.30575
G1 X45.574 Y35.948 E87.31257
G1 X45.221 Y36.302 E87.32180
G1 X45.112 Y35.948 E87.32863
G1 X44.759 Y36.302 E87.33786
G1 X44.650 Y35.948 E87.34469
G1 X44.297 Y36.302 E87.35391
G1 X44.188 Y35.948 E87.36074
G1 X43.835 Y36.302 E87.36997
G1 X43.726 Y35.948 E87.37680
G1 X43.373 Y36.302 E87.38603
G1 X43.264 Y35.948 E87.39285
G1 X42.911 Y36.302 E87.40208
G1 X42.802 Y35.948 E87.40891
G1 X42.448 Y36.302 E87.41814
G1 X42.340 Y35.948 E87.42497
G1 X41.986 Y36.302 E87.43419
G1 X41.878 Y35.948 E87.44102
G1 X41.524 Y36.302 E87.45025
G1 X41.416 Y35.948 E87.45708
G1 X41.062 Y36.302 E87.46631
G1 X40.954 Y35.948 E87.47313
G1 X40.600 Y36.302 E87.48236
G1 X40.492 Y35.948 E87.48919
G1 X40.138 Y36.302 E87.49842
G1 X40.030 Y35.948 E87.50525
G1 X39.676 Y36.302 E87.51447
G1 X39.568 Y35.948 E87.52130
G1 X39.214 Y36.302 E87.53053
G1 X39.106 Y35.948 E87.53736
G1 X38.752 Y36.302 E87.54659
G1 X38.644 Y35.948 E87.55341
G1 X38.290 Y36.302 E87.56264
G1 X38.182 Y35.948 E87.56947
G1 X37.828 Y36.302 E87.57870
G1 X37.720 Y35.948 E87.58553
G1 X37.366 Y36.302 E87.59475
G1 X37.258 Y35.948 E87.60158
G1 X36.904 Y36.302 E87.61081
G1 X36.796 Y35.948 E87.61764
G1 X36.442 Y36.302 E87.62687
G1 X36.334 Y35.948 E87.63369
G1 X35.980 Y36.302 E87.64292
G1 X35.872 Y35.948 E87.64975
G1 X35.518 Y36.302 E87.65898
G1 X35.410 Y35.948 E87.66581
G1 X35.056 Y36.302 E87.67503
G1 X34.947 Y35.948 E87.68186
G1 X34.594 Y36.302 E87.69109
G1 X34.485 Y35.948 E87.69792
G1 X34.132 Y36.302 E87.70715
G1 X34.023 Y35.948 E87.71397
G1 X33.670 Y36.302 E87.72320
G1 X33.561 Y35.948 E87.73003
G1 X33.208 Y36.302 E87.73926
G1 X33.099 Y35.948 E87.74609
G1 X32.746 Y36.302 E87.75531
G1 X32.535 Y36.051 E87.76137
G1 X32.637 Y35.948 E87.76405
G1 X54.752 Y36.102 F4800.000
G1 X57.676 Y33.177 F4200.000 E87.91701
G1 X57.057 Y32.861 F4800.000
G1 X54.752 Y35.167 F4200.000 E88.03759
G1 X54.752 Y34.232 F4800.000
G1 X56.566 Y32.418 F4200.000 E88.13246
G1 X56.128 Y31.922 F4800.000
G1 X54.752 Y33.298 F4200.000 E88.20442
G1 X54.752 Y32.363 F4800.000
G1 X55.812 Y31.302 F4200.000 E88.25989
G1 X55.497 Y30.683 F4800.000
G1 X54.752 Y31.428 F4200.000 E88.29885
G1 X54.752 Y30.494 F4800.000
G1 X55.181 Y30.064 F4200.000 E88.32132
G1 X54.752 Y29.559 F4800.000
G1 X56.019 Y28.291 F4200.000 E88.38761
G1 X54.752 Y28.624 F4800.000
G1 X59.670 Y23.706 F4200.000 E88.64483
G1 X60.544 Y23.767 F4800.000
G1 X57.291 Y27.019 F4200.000 E88.81494
G1 X58.667 Y26.578 F4800.000
G1 X60.544 Y24.701 F4200.000 E88.91311
G1 X60.544 Y25.636 F4800.000
