;Generated with Cura_SteamEngine 14.06
; Default start code
G28 ; Home extruder
G1 Z15 F150
M107 ; Turn off fan
G90 ; Absolute positioning
M82 ; Extruder in absolute mode
; Activate all used extruder
;M104 T0 S0
G92 E0 ; Reset extruder position
; Wait for all used extruders to reach temperature
;M109 T0 S0
;Layer count: 107
;LAYER:0
M107
G0 F12000 X54.24 Y21.04 Z0.30
;TYPE:SKIRT
G1 F2400 X95.74 Y21.04 E2.58805
G1 X95.74 Y31.54 E3.24286
G1 X86.74 Y31.54 E3.80413
G1 X86.74 Y44.54 E4.61484
G1 X63.24 Y44.54 E6.08037
G1 X63.24 Y31.54 E6.89108
G1 X54.24 Y31.54 E7.45235
G1 X54.24 Y21.04 E8.10716
G0 F12000 X54.74 Y21.54
G1 F2400 X95.24 Y21.54 E10.63285
G1 X95.24 Y31.04 E11.22530
G1 X86.24 Y31.04 E11.78656
G1 X86.24 Y44.04 E12.59728
G1 X63.74 Y44.04 E14.00044
G1 X63.74 Y31.04 E14.81115
G1 X54.74 Y31.04 E15.37242
G1 X54.74 Y21.54 E15.96486
G0 F12000 X55.24 Y22.04
G1 F2400 X94.74 Y22.04 E18.42819
G1 X94.74 Y30.54 E18.95828
G1 X85.74 Y30.54 E19.51954
G1 X85.74 Y43.54 E20.33026
G1 X64.24 Y43.54 E21.67106
G1 X64.24 Y30.54 E22.48177
G1 X55.24 Y30.54 E23.04304
G1 X55.24 Y22.04 E23.57312
G0 F12000 X55.74 Y22.54
G1 F2400 X94.24 Y22.54 E25.97409
G1 X94.24 Y30.04 E26.44181
G1 X85.24 Y30.04 E27.00307
G1 X85.24 Y43.04 E27.81379
G1 X64.74 Y43.04 E29.09222
G1 X64.74 Y30.04 E29.90294
G1 X55.74 Y30.04 E30.46420
G1 X55.74 Y22.54 E30.93193
G0 F12000 X56.24 Y23.04
G1 F2400 X93.74 Y23.04 E33.27053
G1 X93.74 Y29.54 E33.67589
G1 X84.74 Y29.54 E34.23715
G1 X84.74 Y42.54 E35.04787
G1 X65.24 Y42.54 E36.26394
G1 X65.24 Y29.54 E37.07466
G1 X56.24 Y29.54 E37.63592
G1 X56.24 Y23.04 E38.04128
G0 F12000 X56.74 Y23.54
G1 F2400 X93.24 Y23.54 E40.31752
G1 X93.24 Y29.04 E40.66052
G1 X84.24 Y29.04 E41.22178
G1 X84.24 Y42.04 E42.03250
G1 X65.74 Y42.04 E43.18621
G1 X65.74 Y29.04 E43.99692
G1 X56.74 Y29.04 E44.55819
G1 X56.74 Y23.54 E44.90118
G0 F12000 X52.31 Y21.30
G1 F2400 X52.31 Y31.80 E45.55599
G1 X43.31 Y31.80 E46.11726
G1 X43.31 Y44.80 E46.92797
G1 X19.81 Y44.80 E48.39350
G1 X19.81 Y31.80 E49.20421
G1 X10.81 Y31.80 E49.76548
G1 X10.81 Y21.30 E50.42029
G1 X52.31 Y21.30 E53.00834
G0 F12000 X51.81 Y21.80
G1 F2400 X51.81 Y31.30 E53.60079
G1 X42.81 Y31.30 E54.16205
G1 X42.81 Y44.30 E54.97277
G1 X20.31 Y44.30 E56.37593
G1 X20.31 Y31.30 E57.18664
G1 X11.31 Y31.30 E57.74791
G1 X11.31 Y21.80 E58.34036
G1 X51.81 Y21.80 E60.86605
G0 F12000 X51.31 Y22.30
G1 F2400 X51.31 Y30.80 E61.39613
G1 X42.31 Y30.80 E61.95740
G1 X42.31 Y43.80 E62.76811
G1 X20.81 Y43.80 E64.10891
G1 X20.81 Y30.80 E64.91963
G1 X11.81 Y30.80 E65.48089
G1 X11.81 Y22.30 E66.01097
G1 X51.31 Y22.30 E68.47430
G0 F12000 X50.81 Y22.80
G1 F2400 X50.81 Y30.30 E68.94202
G1 X41.81 Y30.30 E69.50329
G1 X41.81 Y43.30 E70.31400
G1 X21.31 Y43.30 E71.59244
G1 X21.31 Y30.30 E72.40316
G1 X12.31 Y30.30 E72.96442
G1 X12.31 Y22.80 E73.43214
G1 X50.81 Y22.80 E75.83311
G0 F12000 X50.31 Y23.30
G1 F2400 X50.31 Y29.80 E76.23847
G1 X41.31 Y29.80 E76.79973
G1 X41.31 Y42.80 E77.61045
G1 X21.81 Y42.80 E78.82652
G1 X21.81 Y29.80 E79.63724
G1 X12.81 Y29.80 E80.19850
G1 X12.81 Y23.30 E80.60386
G1 X50.31 Y23.30 E82.94246
G0 F12000 X49.81 Y23.80
G1 F2400 X49.81 Y29.30 E83.28546
G1 X40.81 Y29.30 E83.84672
G1 X40.81 Y42.30 E84.65744
G1 X22.31 Y42.30 E85.81115
G1 X22.31 Y29.30 E86.62186
G1 X13.31 Y29.30 E87.18313
G1 X13.31 Y23.80 E87.52612
G1 X49.81 Y23.80 E89.80236
G0 F12000 X35.34 Y31.12
G1 F2400 X35.00 Y30.55 E89.84410
G1 X34.56 Y30.04 E89.88550
G1 X34.06 Y29.61 E89.92717
G1 X33.48 Y29.26 E89.96910
G1 X33.48 Y29.26 E89.96918
G1 X32.91 Y29.02 E90.00791
G1 X32.24 Y28.86 E90.05097
G1 X32.22 Y28.85 E90.05194
G1 X31.58 Y28.80 E90.09241
G1 X31.56 Y28.80 E90.09347
G1 X30.91 Y28.85 E90.13388
G1 X30.89 Y28.85 E90.13500
G1 X30.26 Y29.00 E90.17560
G1 X30.25 Y29.01 E90.17631
G1 X29.66 Y29.25 E90.21613
G1 X29.06 Y29.61 E90.25983
G1 X28.55 Y30.04 E90.30132
G1 X28.12 Y30.55 E90.34276
G1 X27.77 Y31.12 E90.38444
G1 X27.52 Y31.74 E90.42616
G1 X27.36 Y32.38 E90.46773
G1 X27.31 Y33.05 E90.50926
G1 X27.36 Y33.70 E90.54986
G1 X27.36 Y33.71 E90.55042
G1 X27.51 Y34.33 E90.59056
G1 X27.76 Y34.95 E90.63236
G1 X28.11 Y35.53 E90.67422
G1 X28.54 Y36.03 E90.71560
G1 X29.04 Y36.47 E90.75703
G1 X29.61 Y36.82 E90.79873
G1 X30.24 Y37.09 E90.84155
G1 X30.25 Y37.09 E90.84217
G1 X30.87 Y37.24 E90.88172
G1 X31.56 Y37.30 E90.92478
G1 X31.57 Y37.30 E90.92528
G1 X32.22 Y37.25 E90.96607
G1 X32.22 Y37.25 E90.96619
G1 X32.85 Y37.10 E91.00664
G1 X33.46 Y36.85 E91.04773
G1 X34.04 Y36.50 E91.08995
G1 X34.55 Y36.07 E91.13129
G1 X34.98 Y35.57 E91.17272
G1 X35.33 Y35.00 E91.21443
G1 X35.60 Y34.37 E91.25730
G1 X35.60 Y34.35 E91.25798
G1 X35.75 Y33.74 E91.29741
G1 X35.81 Y33.05 E91.34047
G1 X35.81 Y33.04 E91.34097
G1 X35.76 Y32.38 E91.38226
G1 X35.60 Y31.74 E91.42375
G1 X35.34 Y31.12 E91.46543
G0 F12000 X34.90 Y31.34
G1 F2400 X34.59 Y30.85 E91.50152
G1 X34.21 Y30.39 E91.53881
G1 X33.76 Y30.02 E91.57504
G1 X33.26 Y29.71 E91.61213
G1 X32.75 Y29.50 E91.64627
G1 X32.14 Y29.35 E91.68528
G1 X31.56 Y29.30 E91.72193
G1 X30.97 Y29.35 E91.75865
G1 X30.41 Y29.48 E91.79481
G1 X29.89 Y29.70 E91.82998
G1 X29.36 Y30.02 E91.86859
G1 X28.91 Y30.40 E91.90517
G1 X28.53 Y30.85 E91.94188
G1 X28.22 Y31.34 E91.97839
G1 X28.00 Y31.89 E92.01535
G1 X27.86 Y32.46 E92.05166
G1 X27.81 Y33.05 E92.08863
G1 X27.86 Y33.63 E92.12509
G1 X27.99 Y34.18 E92.16011
G1 X28.21 Y34.73 E92.19740
G1 X28.52 Y35.23 E92.23372
G1 X28.89 Y35.68 E92.27041
G1 X29.34 Y36.06 E92.30710
G1 X29.84 Y36.38 E92.34391
G1 X30.41 Y36.61 E92.38212
G1 X30.95 Y36.74 E92.41718
G1 X31.56 Y36.80 E92.45530
G1 X32.14 Y36.75 E92.49151
G1 X32.70 Y36.62 E92.52735
G1 X33.24 Y36.40 E92.56360
G1 X33.74 Y36.09 E92.60028
G1 X34.19 Y35.71 E92.63702
G1 X34.58 Y35.27 E92.67367
G1 X34.89 Y34.77 E92.71045
G1 X35.12 Y34.20 E92.74862
G1 X35.26 Y33.66 E92.78381
G1 X35.31 Y33.05 E92.82186
G1 X35.26 Y32.46 E92.85840
G1 X35.12 Y31.89 E92.89508
G1 X34.90 Y31.34 E92.93207
G0 F12000 X34.45 Y31.58
G1 F2400 X34.18 Y31.14 E92.96412
G1 X33.85 Y30.75 E92.99575
G1 X33.47 Y30.42 E93.02751
G1 X33.03 Y30.15 E93.05972
G1 X32.59 Y29.97 E93.08894
G1 X32.06 Y29.84 E93.12325
G1 X31.56 Y29.80 E93.15471
G1 X31.06 Y29.84 E93.18605
G1 X30.56 Y29.96 E93.21804
G1 X30.11 Y30.14 E93.24793
G1 X29.65 Y30.43 E93.28190
G1 X29.26 Y30.75 E93.31335
G1 X28.93 Y31.14 E93.34498
G1 X28.67 Y31.58 E93.37695
G1 X28.47 Y32.05 E93.40882
G1 X28.35 Y32.54 E93.44038
G1 X28.31 Y33.05 E93.47228
G1 X28.35 Y33.55 E93.50349
G1 X28.47 Y34.03 E93.53439
G1 X28.66 Y34.50 E93.56625
G1 X28.93 Y34.94 E93.59818
G1 X29.25 Y35.33 E93.62960
G1 X29.64 Y35.66 E93.66130
G1 X30.07 Y35.93 E93.69332
G1 X30.56 Y36.14 E93.72663
G1 X31.03 Y36.25 E93.75662
G1 X31.57 Y36.30 E93.79030
G1 X32.06 Y36.26 E93.82126
G1 X32.54 Y36.14 E93.85197
G1 X33.01 Y35.95 E93.88355
G1 X33.45 Y35.68 E93.91573
G1 X33.84 Y35.36 E93.94720
G1 X34.17 Y34.97 E93.97882
G1 X34.44 Y34.54 E94.01097
G1 X34.65 Y34.05 E94.04406
G1 X34.76 Y33.58 E94.07413
G1 X34.81 Y33.04 E94.10768
G1 X34.77 Y32.54 E94.13896
G1 X34.65 Y32.04 E94.17089
G1 X34.45 Y31.58 E94.20243
G0 F12000 X70.74 Y32.79
G1 F2400 X70.79 Y33.44 E94.24302
G1 X70.79 Y33.45 E94.24353
G1 X70.94 Y34.07 E94.28373
G1 X71.19 Y34.69 E94.32552
G1 X71.54 Y35.27 E94.36739
G1 X71.97 Y35.77 E94.40872
G1 X72.47 Y36.21 E94.45015
G1 X73.03 Y36.56 E94.49150
G1 X73.67 Y36.83 E94.53471
G1 X73.68 Y36.83 E94.53532
G1 X74.30 Y36.98 E94.57489
G1 X74.98 Y37.04 E94.61789
G1 X74.99 Y37.04 E94.61839
G1 X75.64 Y36.99 E94.65918
G1 X75.64 Y36.99 E94.65930
G1 X76.27 Y36.84 E94.69944
G1 X76.89 Y36.58 E94.74118
G1 X77.47 Y36.24 E94.78304
G1 X77.97 Y35.81 E94.82416
G1 X78.41 Y35.30 E94.86607
G1 X78.76 Y34.74 E94.90718
G1 X79.03 Y34.10 E94.95040
G1 X79.03 Y34.09 E94.95107
G1 X79.18 Y33.48 E94.99052
G1 X79.23 Y32.79 E95.03357
G1 X79.23 Y32.78 E95.03407
G1 X79.18 Y32.12 E95.07529
G1 X79.03 Y31.48 E95.11686
G1 X78.77 Y30.86 E95.15857
G1 X78.42 Y30.29 E95.20025
G1 X77.99 Y29.78 E95.24170
G1 X77.49 Y29.35 E95.28314
G1 X76.93 Y29.01 E95.32356
G1 X76.33 Y28.76 E95.36440
G1 X75.66 Y28.59 E95.40714
G1 X75.65 Y28.59 E95.40811
G1 X75.00 Y28.54 E95.44858
G1 X74.98 Y28.54 E95.44964
G1 X74.34 Y28.59 E95.49005
G1 X74.32 Y28.59 E95.49117
G1 X73.69 Y28.74 E95.53171
G1 X73.67 Y28.75 E95.53262
G1 X73.09 Y28.99 E95.57213
G1 X72.49 Y29.35 E95.61600
G1 X71.98 Y29.78 E95.65750
G1 X71.55 Y30.29 E95.69890
G1 X71.20 Y30.86 E95.74058
G1 X70.94 Y31.48 E95.78230
G1 X70.79 Y32.12 E95.82380
G1 X70.74 Y32.79 E95.86540
G0 F12000 X71.24 Y32.79
G1 F2400 X71.28 Y33.37 E95.90199
G1 X71.42 Y33.92 E95.93694
G1 X71.64 Y34.47 E95.97423
G1 X71.94 Y34.97 E96.01050
G1 X72.32 Y35.42 E96.04724
G1 X72.77 Y35.80 E96.08390
G1 X73.26 Y36.11 E96.12048
G1 X73.83 Y36.35 E96.15902
G1 X74.38 Y36.48 E96.19378
G1 X74.99 Y36.53 E96.23209
G1 X75.57 Y36.49 E96.26868
G1 X76.11 Y36.36 E96.30343
G1 X76.67 Y36.13 E96.34074
G1 X77.17 Y35.83 E96.37706
G1 X77.62 Y35.45 E96.41389
G1 X78.00 Y35.01 E96.45049
G1 X78.31 Y34.51 E96.48708
G1 X78.55 Y33.94 E96.52562
G1 X78.68 Y33.40 E96.56032
G1 X78.73 Y32.78 E96.59905
G1 X78.69 Y32.20 E96.63546
G1 X78.55 Y31.63 E96.67176
G1 X78.33 Y31.08 E96.70873
G1 X78.02 Y30.59 E96.74523
G1 X77.64 Y30.14 E96.78194
G1 X77.19 Y29.76 E96.81830
G1 X76.70 Y29.46 E96.85430
G1 X76.17 Y29.24 E96.89006
G1 X75.57 Y29.09 E96.92875
G1 X74.98 Y29.04 E96.96540
G1 X74.40 Y29.09 E97.00211
G1 X73.83 Y29.22 E97.03841
G1 X73.31 Y29.43 E97.07329
G1 X72.78 Y29.76 E97.11207
G1 X72.34 Y30.13 E97.14830
G1 X71.95 Y30.59 E97.18559
G1 X71.65 Y31.08 E97.22181
G1 X71.42 Y31.63 E97.25878
G1 X71.29 Y32.20 E97.29508
G1 X71.24 Y32.79 E97.33199
G0 F12000 X71.74 Y32.79
G1 F2400 X71.78 Y33.29 E97.36327
G1 X71.89 Y33.77 E97.39417
G1 X72.09 Y34.24 E97.42603
G1 X72.35 Y34.68 E97.45795
G1 X72.68 Y35.07 E97.48942
G1 X73.06 Y35.40 E97.52104
G1 X73.50 Y35.67 E97.55305
G1 X73.99 Y35.88 E97.58626
G1 X74.46 Y35.99 E97.61659
G1 X75.00 Y36.03 E97.65001
G1 X75.49 Y35.99 E97.68073
G1 X75.97 Y35.88 E97.71157
G1 X76.44 Y35.69 E97.74363
G1 X76.88 Y35.42 E97.77541
G1 X77.27 Y35.10 E97.80697
G1 X77.60 Y34.71 E97.83854
G1 X77.87 Y34.28 E97.87055
G1 X78.07 Y33.79 E97.90376
G1 X78.19 Y33.32 E97.93371
G1 X78.23 Y32.78 E97.96750
G1 X78.19 Y32.28 E97.99878
G1 X78.08 Y31.79 E98.03033
G1 X77.88 Y31.32 E98.06220
G1 X77.61 Y30.88 E98.09417
G1 X77.28 Y30.49 E98.12580
G1 X76.90 Y30.16 E98.15743
G1 X76.47 Y29.90 E98.18836
G1 X76.01 Y29.71 E98.21942
G1 X75.49 Y29.58 E98.25327
G1 X74.98 Y29.54 E98.28479
G1 X74.48 Y29.58 E98.31613
G1 X73.98 Y29.70 E98.34820
G1 X73.54 Y29.88 E98.37787
G1 X73.07 Y30.16 E98.41197
G1 X72.69 Y30.49 E98.44338
G1 X72.36 Y30.88 E98.47501
G1 X72.09 Y31.32 E98.50698
G1 X71.90 Y31.79 E98.53885
G1 X71.78 Y32.28 E98.57040
G1 X71.74 Y32.79 E98.60224
G1 F2400 E94.60224
G0 F12000 X48.81 Y28.30
;TYPE:WALL-INNER
G1 F2400 E98.60224
G1 X39.81 Y28.30 E99.16351
G1 X39.81 Y41.30 E99.97423
G1 X23.31 Y41.30 E101.00321
G1 X23.31 Y28.30 E101.81393
G1 X14.31 Y28.30 E102.37519
G1 X14.31 Y24.80 E102.59346
G1 X48.81 Y24.80 E104.74498
G1 X48.81 Y28.30 E104.96325
G0 F12000 X39.92 Y28.41
G0 X36.56 Y31.43
G1 F2400 X36.24 Y30.66 E105.01471
G1 X35.81 Y29.96 E105.06605
G1 X35.27 Y29.34 E105.11745
G1 X34.65 Y28.80 E105.16890
G1 X34.02 Y28.42 E105.21458
G1 X33.96 Y28.37 E105.21938
G1 X33.22 Y28.07 E105.26930
G1 X32.48 Y27.89 E105.31673
G1 X32.39 Y27.86 E105.32272
G1 X31.65 Y27.80 E105.36857
G1 X31.56 Y27.80 E105.37433
G1 X30.83 Y27.85 E105.41998
G1 X30.74 Y27.86 E105.42593
G1 X30.02 Y28.03 E105.47172
G1 X29.93 Y28.06 E105.47764
G1 X29.21 Y28.35 E105.52624
G1 X28.48 Y28.80 E105.57984
G1 X27.85 Y29.34 E105.63142
G1 X27.31 Y29.96 E105.68286
G1 X26.88 Y30.66 E105.73420
G1 X26.57 Y31.43 E105.78562
G1 X26.37 Y32.23 E105.83700
G1 X26.31 Y33.05 E105.88842
G1 X26.36 Y33.80 E105.93514
G1 X26.56 Y34.64 E105.98930
G1 X26.87 Y35.41 E106.04061
G1 X27.29 Y36.11 E106.09201
G1 X27.82 Y36.74 E106.14334
G1 X28.45 Y37.28 E106.19468
G1 X29.15 Y37.71 E106.24607
G1 X29.85 Y38.01 E106.29378
G1 X29.93 Y38.04 E106.29897
G1 X30.71 Y38.23 E106.34910
G1 X31.46 Y38.29 E106.39623
G1 X31.55 Y38.30 E106.40150
G1 X32.31 Y38.24 E106.44904
G1 X33.15 Y38.05 E106.50312
G1 X33.92 Y37.74 E106.55445
G1 X34.62 Y37.31 E106.60585
G1 X35.25 Y36.78 E106.65714
G1 X35.79 Y36.16 E106.70848
G1 X36.22 Y35.46 E106.75987
G1 X36.52 Y34.77 E106.80689
G1 X36.55 Y34.68 E106.81283
G1 X36.74 Y33.90 E106.86290
G1 X36.80 Y33.16 E106.90915
G1 X36.81 Y33.06 E106.91530
G1 X36.75 Y32.23 E106.96747
G1 X36.56 Y31.43 E107.01882
G0 F12000 X36.08 Y31.58
;TYPE:WALL-OUTER
G1 F2400 X35.79 Y30.89 E107.06537
G1 X35.40 Y30.26 E107.11181
G1 X34.92 Y29.69 E107.15830
G1 X34.35 Y29.20 E107.20483
G1 X33.76 Y28.84 E107.24833
G1 X33.72 Y28.82 E107.25103
G1 X33.06 Y28.55 E107.29555
G1 X32.36 Y28.37 E107.34066
G1 X32.30 Y28.36 E107.34414
G1 X31.62 Y28.30 E107.38718
G1 X31.56 Y28.30 E107.39068
G1 X30.87 Y28.35 E107.43378
G1 X30.82 Y28.36 E107.43728
G1 X30.14 Y28.52 E107.48038
G1 X29.44 Y28.80 E107.52789
G1 X28.77 Y29.20 E107.57663
G1 X28.20 Y29.69 E107.62316
G1 X27.72 Y30.26 E107.66969
G1 X27.33 Y30.89 E107.71613
G1 X27.04 Y31.58 E107.76263
G1 X26.87 Y32.31 E107.80914
G1 X26.81 Y33.05 E107.85562
G1 X26.86 Y33.75 E107.89940
G1 X26.87 Y33.80 E107.90235
G1 X27.03 Y34.49 E107.94685
G1 X27.32 Y35.18 E107.99331
G1 X27.70 Y35.82 E108.03976
G1 X28.18 Y36.39 E108.08623
G1 X28.75 Y36.87 E108.13265
G1 X29.38 Y37.27 E108.17920
G1 X30.04 Y37.55 E108.22412
G1 X30.09 Y37.57 E108.22727
G1 X30.79 Y37.73 E108.27221
G1 X31.51 Y37.80 E108.31740
G1 X31.56 Y37.80 E108.32016
G1 X32.26 Y37.74 E108.36426
G1 X32.31 Y37.74 E108.36714
G1 X33.00 Y37.58 E108.41163
G1 X33.69 Y37.29 E108.45811
G1 X34.33 Y36.91 E108.50456
G1 X34.90 Y36.43 E108.55099
G1 X35.38 Y35.86 E108.59741
G1 X35.78 Y35.23 E108.64396
G1 X36.06 Y34.56 E108.68893
G1 X36.08 Y34.52 E108.69209
G1 X36.24 Y33.82 E108.73697
G1 X36.30 Y33.10 E108.78171
G1 X36.31 Y33.05 E108.78492
G1 X36.25 Y32.31 E108.83165
G1 X36.08 Y31.58 E108.87813
G0 F12000 X36.40 Y31.45
G0 X39.92 Y28.41
G0 X40.31 Y28.45
G0 X40.31 Y28.80
G1 F2400 X40.31 Y41.80 E109.68884
G1 X22.81 Y41.80 E110.78019
G1 X22.81 Y28.80 E111.59091
G1 X13.81 Y28.80 E112.15217
G1 X13.81 Y24.30 E112.43280
G1 X49.31 Y24.30 E114.64668
G1 X49.31 Y28.80 E114.92731
G1 X40.31 Y28.80 E115.48858
G0 F12000 X39.63 Y28.67
;TYPE:FILL
G1 F2400 X35.93 Y24.97 E115.81490
G0 F12000 X35.23 Y24.97
G1 F2400 X39.63 Y29.38 E116.20357
G0 F12000 X39.63 Y30.09
G1 F2400 X34.52 Y24.97 E116.65460
G0 F12000 X33.81 Y24.97
G1 F2400 X39.63 Y30.80 E117.16797
G0 F12000 X39.63 Y31.50
G1 F2400 X33.11 Y24.97 E117.74375
G0 F12000 X32.40 Y24.97
G1 F2400 X39.63 Y32.21 E118.38192
G0 F12000 X39.63 Y32.92
G1 F2400 X31.69 Y24.97 E119.08245
G0 F12000 X30.98 Y24.97
G1 F2400 X34.54 Y28.53 E119.39581
G0 F12000 X33.18 Y27.88
G1 F2400 X30.28 Y24.97 E119.65214
G0 F12000 X29.57 Y24.97
G1 F2400 X32.27 Y27.68 E119.89053
G0 F12000 X31.51 Y27.62
G1 F2400 X28.86 Y24.97 E120.12433
G0 F12000 X28.16 Y24.97
G1 F2400 X30.86 Y27.68 E120.36272
G0 F12000 X30.27 Y27.79
G1 F2400 X27.45 Y24.97 E120.61134
G0 F12000 X26.74 Y24.97
G1 F2400 X29.72 Y27.95 E120.87407
G0 F12000 X29.22 Y28.16
G1 F2400 X26.03 Y24.97 E121.15502
G0 F12000 X25.33 Y24.97
G1 F2400 X28.77 Y28.41 E121.45854
G0 F12000 X28.33 Y28.69
G1 F2400 X24.62 Y24.97 E121.78600
G0 F12000 X23.91 Y24.97
G1 F2400 X27.95 Y29.01 E122.14222
G0 F12000 X27.59 Y29.36
G1 F2400 X23.20 Y24.97 E122.52921
G0 F12000 X22.50 Y24.97
G1 F2400 X27.27 Y29.74 E122.94981
G0 F12000 X26.98 Y30.16
G1 F2400 X21.79 Y24.97 E123.40754
G0 F12000 X21.08 Y24.97
G1 F2400 X26.71 Y30.60 E123.90416
G0 F12000 X26.51 Y31.10
G1 F2400 X20.38 Y24.97 E124.44488
G0 F12000 X19.67 Y24.97
G1 F2400 X22.82 Y28.12 E124.72269
G0 F12000 X22.11 Y28.12
G1 F2400 X18.96 Y24.97 E125.00051
G0 F12000 X18.26 Y24.97
G1 F2400 X21.41 Y28.12 E125.27832
G0 F12000 X20.70 Y28.12
G1 F2400 X17.55 Y24.97 E125.55617
G0 F12000 X16.84 Y24.97
G1 F2400 X19.99 Y28.12 E125.83403
G0 F12000 X19.28 Y28.12
G1 F2400 X16.13 Y24.97 E126.11184
G0 F12000 X15.43 Y24.97
G1 F2400 X18.58 Y28.12 E126.38965
G0 F12000 X17.87 Y28.12
G1 F2400 X14.72 Y24.97 E126.66747
G0 F12000 X14.48 Y25.45
G1 F2400 X17.16 Y28.12 E126.90365
G0 F12000 X16.46 Y28.12
G1 F2400 X14.48 Y26.15 E127.07748
G0 F12000 X14.48 Y26.86
G1 F2400 X15.75 Y28.12 E127.18896
